X: 1
T: Bay of Holland
C: Freeland Barbour \251 2005
R: reel
Z: 2005 John Chambers <jc:trillian.mit.edu>
M: C|
L: 1/8
K: F
z2"A"\
|  "F"cfAc FACF | "C7"EFGA BGEG | "F"F2CF     A2FA | "Bb"BAGF "C7"EGc2 |
y3 \
|  "F"cfAc FACF | "C7"EFGA BGEG | "F"A2GA "C7"BGEG |  "F"F2F2     F2  :|
|: GF "B"\
| "C7"ECC2 GCC2 | "C7"CDEF GABG | "F"FCC2     AFF2 | "F"c2Ad cAGF |
y8 \
| "C7"ECC2 GCC2 | "C7"CDEF GABG | "F"A2GA "C7"BGEG | "F"F2F2 F2  :|
